X:124
T:Reel 124
M:4/4
K:Gmaj
L:1/8
gf|d>G (3GGG dcBc|d>G (3GGG d2ef|d>G (3GGG defd|eA (3AAA =fdcf|dG (3GGG dcBc|d>G (3GGG degf|d=fed edcB|AGFG ABce|d2=fd cAAc|dega g2fg|d2de =fdfg|agfd cAFA|dggf gefg|abge abge|defg afge|de=fd cAGA|dggf gagf|dega bggf|defe fgfe|d=feg =fdcB|dggf gagf|dggf gabc'|d'e'c'a bgag|fdef Adc
